X:1
T:Title
%%score { ( 1 4 ) | ( 2 3 ) }
L:1/8
Q:1/4=84
M:6/8
K:Ab
V:1 treble nm="Grand Piano"
V:4 treble 
V:2 bass 
V:3 bass 
V:1
 [CA][CA][CA] [Ec]>[CA][CA] | [DB]>[CA][CA] [CA]3 | [GB]>[GB][GB] [GB][Gc][Gd] | [GB]3 z3 | %4
w: J.~M.~Whyte * * * * *||||
 [CA][CA][CA] [Ec]>[CA][CA] | [DB]>[CA][CA] [CA]3 | [DGB]>[DGB][DGB] [DGB][Ed][Ec] | %7
w: |||
[M:5/8] [CEA]2 z z2 |[M:1/8] e |[M:3/4] [Ce]c cd BB | [A,c]2 A [EB]2 E | [CA]B/c/ d/B/[Ec] AA | %12
w: |||||
 .[DB]2 G [CA]3 | [CA]>A A[DB] BB | [Ec]c c [Fd]2 [FAd] | [EAc][Ae] AB dG |[M:3/8] [CEA]2 z | %17
w: |||||
 [Ece]>[df][ce] |[M:3/4] z2 z [Bd]3 | B,3 [Bd]- [Bd]/[ce]/[Bd] | z2 z [Ac]3 | z2 z .[Ac]3 | %22
w: |||||
 z2 z .[Gd]3 | [DGB]2 EA cA | Bd G [CEA]3 |] %25
w: |||
V:2
 A,,A,,A,, A,,>A,,A,, | E,,>A,,A,, A,,3 | [E,E]>[E,E][E,E] [E,E][E,E][E,E] | [E,E]3 z3 | %4
 A,,A,,A,, A,,>A,,A,, | E,,>A,,A,, A,,3 | E,>E,E, E,[E,B,]E, |[M:5/8] A,,2 z z2 |[M:1/8] C | %9
[M:3/4] z A, A,B, G,G, | z2 .C2 z C | z E .E2 CC | z[K:treble] d D[K:bass] A,,3 | z z/ C/ .C2 DD | %14
 z E E D,,2 D, | E,[E,C] [E,CE][E,DE] [E,DE][E,B,E] |[M:3/8] A,,2 z | A,>[A,E][A,E] | %18
[M:3/4] z A c[K:bass]E, z E, | E,3 [E,B,]- [E,B,]/[E,B,]/[E,B,] | [E,B,][E,C] [E,D] [A,E]2 A, | %21
 A,2 z A, A,A, | A,2 z E, E,E, | E,2 [G,D][A,CE] [A,E][A,CE] | [E,DE][E,B,E] [E,DE] A,,3 |] %25
V:3
 x6 | x6 | x6 | x6 | x6 | x6 | x6 |[M:5/8] x5 |[M:1/8] x |[M:3/4] A,,3 E,3 | E,,3 E,,3 | %11
 E,,3 E,,3 | E,,4[K:treble][K:bass] z2 | A,,3 E,,3 | A,,4 z2 | x6 |[M:3/8] x3 | x3 | %18
[M:3/4] [A,C]2 z2[K:bass] z2 | x6 | x6 | x6 | x6 | x6 | x6 |] %25
V:4
 x6 | x6 | x6 | x6 | x6 | x6 | x6 |[M:5/8] x5 |[M:1/8] x |[M:3/4] x6 | x6 | x6 | x6 | x6 | x6 | %15
 x6 |[M:3/8] x3 | x3 |[M:3/4] [ce]c eD z D | x6 | [Bd][Ac] .[GB]2 z E | E2 z E EE | [CA]2 z E EE | %23
 x6 | x6 |] %25

